X: 62
T:Mist Covered Mountains of Home, The
M:3/4
L:1/4
R:air/waltz
K:ADor
E|A2 A|A>B c/d/|eA>B|AGE/F/|G2 G|d2 d|e2 e|d2 c/B/|c3  |d3  |e>fg|B>AG|A
/e/e>^c|d2 c/B/|A>G E/G/|A2 :|
|: A|eAe|e>e e/e/|d>eg|e>dB/A/|G2 G|d2 d|e2 e|d>cB|c3  |d3  |e>fg|B>AG|A
/e/e^c|d>cB|A>GE/G/|A2 ||
